X: 141
T:Reel de Montreal
M:4/4
L:1/4
O:French Canadian
Z:bil@blueskiesink.com
K:G
|: "G"gf/2e/2 d/2c/2B/2A/2 | G/2B/2D/2G/2 BA/2G/2 | "D"F/2A/2D/2F/2
A/2c/2B/2A/2 |  "G"G/2B/2D/2G/2 B/d/e/2f/2 |
| "G"gf/2e/2 d/2c/2B/2A/2 | "G"G/2B/2D/2G/2 BA/2G/2 | "D7"F/2G/2A/2B/2
c/2d/2e/2f/2 |  "G"gg g2 :|  [K:D]
|: "D"AF/2A/2 dA/2d/2 | fd/2f/2 aa/2b/2 | "A7"ag eg | "D"ba fd |
| "D"AF/2A/2 dA/2d/2 | fd/2f/2 aa/2b/2 | "A7"ag ec | "D"d2- "(D7)"d2 :|

